X: 3
T:
P: Andante
M: 4/4
L: 1/16
K: Gm
V:1
[| b2b2- babc' a2 d'4 d2 | g2ab Ta3g ^f2ga d2f2 | G2g^f g2g2 f2=f=e f2f2 | =e2_ed e2e2 d4 z2c'2- | c'=bc'd' g2b2 c4 z2_b2- |
   babc' f2a2 B4 z2a2- | a^fg2- g=e=f2- fde2- e^cde | ^c2zd c2d2 c2zd c2d2 | G2G^F G2G2 g2=f=e f2^c2 | d2B2 G2A2 f2f2- f=efg |
   =e2 a4 A2 d2ef Te3d | ^c2d=e A2c2 def2- fg_a2- | a2g2- gf_ed egc'c Td3c | c2c=B c2c2 =B2_BA B2B2 | A2_AG A2A2 G4 z2f2- |
%
   f=efg c2e2 f4 z2c'2- | c'ab2- bga2- a^fgd d'4- | d'=bc'2- c'a_b2- bga2- a^fga | ^f2zg f2g2 ae'd'^c' d'abg |
   _a2a2- aeac' e'2d'2- d'c'b=a | bd'g'g Ta3g e2e2- edeg | b2a2- agf=e fad'd Te3d | d=ef2- fg_a2 a2g2- gf_ed |
   efg2- g=ab2- b2a2- agf=e | f2ag a2g2 ^f2ba b2f2 | g2B2 c2d2 G2bg d'4- | d'c'bc' Tc'3d d8 |]
V:2
[| G2g^f g2g2 f2=f=e f2f2 | =e2_ed e2e2 d4 zc'ba | b2b2- babc' a2 d'4 d2 | g2ab Ta3g ^f2ga d2f2 | G4 z2=f2- f=efg c2e2 |
   F4 z2_e2- edef B2d2 | b3c' a3b g3a f3g | =eba^g aefd ebag aefd | _e2e2- edeg b2a2- agf=e | fad'd T=e3d d2d^c d2d2 |
   ^c2=c=B c2c2 B2_BA B2B2 | A4 zgf=e f2d^c d2=c2 | =B2_ed e2B2 c2_A2 F2G2 | e2e2- edef d2 g4 G2 | c2de Td3c =B2cd G2B2 |
%
   c4 z2b2- babc' f2a2 | d'3e' c'3d' b4 z^fgd | e'3=f' d'3e' c'3d' b3c' | ae'd'^c' d'abg ^f2zg ^f2g2 |
   c2c=B c2c2 c'2_ba b2^f2 | g2B2 c2d2 G2G^F G2G2 | g2=f=e f2^c2 d2B2 G2A2 | d2d^c d2=c2 =B2_ed e2B2 |
   c2ed e2d2 ^c2f=e f2c2 | ab=c'2- c'd'_e'2- e'2d'2- d'c'ba | bd'g'g Ta3g g4 z2BG | e4- Te3d d8 |]

